Sources/FrostedUI/Resources/Icons.xcassets/shareScreen16.imageset/share-screen-16.svg

<svg width="16" height="16" viewBox="0 0 16 16" fill="none" xmlns="http://www.w3.org/2000/svg" data-fui-icon="true">
  <path
    d="M11.25 1.5C13.3211 1.5 15 3.17893 15 5.25V10.75C15 12.8211 13.3211 14.5 11.25 14.5H4.75C2.67893 14.5 1 12.8211 1 10.75V5.25C1 3.17893 2.67893 1.5 4.75 1.5H11.25ZM4.75 3C3.50736 3 2.5 4.00736 2.5 5.25V10.75C2.5 11.9926 3.50736 13 4.75 13H11.25C12.4926 13 13.5 11.9926 13.5 10.75V5.25C13.5 4.00736 12.4926 3 11.25 3H4.75ZM7.31641 4.88086C7.74178 4.53405 8.36903 4.55884 8.76562 4.95508L10.7803 6.96973C11.0729 7.26257 11.0729 7.73742 10.7803 8.03027C10.4874 8.32292 10.0126 8.32293 9.71973 8.03027L8.75 7.06055V10.5C8.7498 10.914 8.41409 11.25 8 11.25C7.58591 11.25 7.2502 10.914 7.25 10.5V7.06055L6.28027 8.03027C5.98743 8.32292 5.51257 8.32292 5.21973 8.03027C4.92708 7.73743 4.92708 7.26257 5.21973 6.96973L7.23438 4.95508L7.31641 4.88086Z"
    fill="currentColor"
  />
</svg>

<svg xmlns="http://www.w3.org/2000/svg" width="16" height="16" fill="none" data-fui-icon="true" viewBox="0 0 16 16"><path fill="currentColor" d="M11.25 1.5A3.75 3.75 0 0 1 15 5.25v5.5a3.75 3.75 0 0 1-3.75 3.75h-6.5A3.75 3.75 0 0 1 1 10.75v-5.5A3.75 3.75 0 0 1 4.75 1.5zM4.75 3A2.25 2.25 0 0 0 2.5 5.25v5.5A2.25 2.25 0 0 0 4.75 13h6.5a2.25 2.25 0 0 0 2.25-2.25v-5.5A2.25 2.25 0 0 0 11.25 3zm2.566 1.88a1.083 1.083 0 0 1 1.45.075L10.78 6.97a.75.75 0 0 1-1.06 1.06l-.97-.97v3.44a.75.75 0 0 1-1.5 0V7.06l-.97.97a.75.75 0 0 1-1.06-1.06l2.014-2.015z"/></svg>
